images/icon/loop.svg

<svg width="41" height="40" viewBox="0 0 41 40" fill="none" xmlns="http://www.w3.org/2000/svg">
<path d="M39.7578 39.2571C39.263 39.7524 38.6706 40 37.9805 40C37.2904 40 36.6979 39.7524 36.2031 39.2571L28.4688 31.5152C25.3438 33.8351 21.8542 34.9951 18 34.9951C15.6302 34.9951 13.3646 34.5324 11.2031 33.607C9.04167 32.6817 7.17969 31.437 5.61719 29.8729C4.05469 28.3089 2.8112 26.4516 1.88672 24.3011C0.96224 22.1505 0.5 19.8827 0.5 17.4976C0.5 15.1124 0.96224 12.8381 1.88672 10.6745C2.8112 8.51092 4.05469 6.65363 5.61719 5.10264C7.17969 3.55165 9.04167 2.31346 11.2031 1.38807C13.3646 0.462691 15.6302 0 18 0C20.3698 0 22.6354 0.462691 24.7969 1.38807C26.9583 2.31346 28.8203 3.55165 30.3828 5.10264C31.9453 6.65363 33.1888 8.51092 34.1133 10.6745C35.0378 12.8381 35.5 15.1059 35.5 17.478C35.5 21.362 34.3411 24.855 32.0234 27.957L39.7578 35.6989C40.2526 36.1942 40.5 36.7872 40.5 37.478C40.5 38.1688 40.2526 38.7618 39.7578 39.2571ZM18 5.00489C15.7344 5.00489 13.6445 5.55881 11.7305 6.66667C9.81641 7.77452 8.29948 9.29293 7.17969 11.2219C6.0599 13.1509 5.5 15.2428 5.5 17.4976C5.5 19.7524 6.0599 21.8442 7.17969 23.7732C8.29948 25.7022 9.81641 27.2206 11.7305 28.3284C13.6445 29.4363 15.7344 29.9902 18 29.9902C20.2656 29.9902 22.3555 29.4363 24.2695 28.3284C26.1836 27.2206 27.7005 25.7022 28.8203 23.7732C29.9401 21.8442 30.5 19.7524 30.5 17.4976C30.5 15.2428 29.9401 13.1509 28.8203 11.2219C27.7005 9.29293 26.1836 7.77452 24.2695 6.66667C22.3555 5.55881 20.2656 5.00489 18 5.00489Z" fill="#2285E0"/>
</svg>

<svg width="41" height="40" fill="none" xmlns="http://www.w3.org/2000/svg"><path d="M39.758 39.257A2.423 2.423 0 0137.98 40c-.69 0-1.282-.248-1.777-.743l-7.734-7.742c-3.125 2.32-6.615 3.48-10.469 3.48-2.37 0-4.635-.463-6.797-1.388-2.161-.925-4.023-2.17-5.586-3.734-1.562-1.564-2.806-3.421-3.73-5.572A17.046 17.046 0 01.5 17.498c0-2.386.462-4.66 1.387-6.824.924-2.163 2.168-4.02 3.73-5.571 1.563-1.551 3.425-2.79 5.586-3.715A17.093 17.093 0 0118 0c2.37 0 4.635.463 6.797 1.388 2.161.925 4.023 2.164 5.586 3.715 1.562 1.55 2.806 3.408 3.73 5.572a17.138 17.138 0 011.387 6.803c0 3.884-1.159 7.377-3.477 10.479l7.735 7.742c.495.495.742 1.088.742 1.779 0 .69-.247 1.284-.742 1.78zM18 5.005c-2.266 0-4.355.554-6.27 1.662a12.313 12.313 0 00-4.55 4.555 12.285 12.285 0 00-1.68 6.276c0 2.254.56 4.346 1.68 6.275a12.312 12.312 0 004.55 4.555c1.915 1.108 4.004 1.662 6.27 1.662s4.355-.554 6.27-1.662a12.312 12.312 0 004.55-4.555 12.284 12.284 0 001.68-6.275c0-2.255-.56-4.347-1.68-6.276a12.313 12.313 0 00-4.55-4.555C22.355 5.559 20.266 5.005 18 5.005z" fill="#2285E0"/></svg>
